public/img/logo.svg

<?xml version="1.0" encoding="UTF-8"?>
<svg width="60px" height="61px" viewBox="0 0 60 61" version="1.1" xmlns="http://www.w3.org/2000/svg" xmlns:xlink="http://www.w3.org/1999/xlink">
    <!-- Generator: Sketch 51.2 (57519) - http://www.bohemiancoding.com/sketch -->
    <title>Logo</title>
    <desc>Created with Sketch.</desc>
    <defs>
        <linearGradient x1="62.6408134%" y1="94.4451062%" x2="12.602937%" y2="8.70683263%" id="linearGradient-1">
            <stop stop-color="#1696E9" offset="0%"></stop>
            <stop stop-color="#1BA1F0" offset="100%"></stop>
        </linearGradient>
        <circle id="path-2" cx="30" cy="30" r="30"></circle>
        <filter x="-35.6%" y="-27.4%" width="171.2%" height="169.8%" filterUnits="objectBoundingBox" id="filter-4">
            <feOffset dx="0" dy="4" in="SourceAlpha" result="shadowOffsetOuter1"></feOffset>
            <feGaussianBlur stdDeviation="5.5" in="shadowOffsetOuter1" result="shadowBlurOuter1"></feGaussianBlur>
            <feColorMatrix values="0 0 0 0 0   0 0 0 0 0   0 0 0 0 0  0 0 0 0.35 0" type="matrix" in="shadowBlurOuter1" result="shadowMatrixOuter1"></feColorMatrix>
            <feMerge>
                <feMergeNode in="shadowMatrixOuter1"></feMergeNode>
                <feMergeNode in="SourceGraphic"></feMergeNode>
            </feMerge>
        </filter>
        <path d="M22.9102387,21.6119924 L22.9102387,28.0615817 C22.9102387,28.3167287 22.8907663,28.6114202 22.855413,28.9229845 L26.5525578,31.8496604 C26.8336232,32.072153 26.9093171,32.5028485 26.722649,32.8124563 L26.6331231,32.9609438 C26.4427287,33.2767319 26.0023897,33.4908726 25.6412756,33.4530446 L21.6025708,33.0299755 C21.1167217,34.0015361 20.4124601,35.0451501 19.6288346,35.0451501 C18.8461488,35.0451501 18.1466257,34.0040377 17.6645549,33.0334713 L13.6592218,33.4530446 C13.2981077,33.4908726 12.8577686,33.2767319 12.6673742,32.9609438 L12.5778484,32.8124563 C12.3911802,32.5028485 12.4668742,32.072153 12.7479395,31.8496604 L16.4256265,28.9383874 C16.3883829,28.620809 16.3675805,28.320633 16.3675805,28.0615817 L16.3675805,21.6168385 L2.6744549,22.3156512 C2.32021138,22.3337296 1.81612067,22.1601653 1.53833499,21.9191325 L1.34507719,21.7514439 C1.071859,21.5143743 0.855155303,21.0235215 0.860880454,20.6660497 L0.874264982,19.8303354 C0.880068694,19.4679584 1.13728493,19.0445605 1.45691743,18.8804688 L16.3675805,11.2256912 L16.3675805,5.43595273 C16.3675805,4.53857579 16.6880711,3.16460552 17.1329677,2.37029151 C17.1329677,2.37029151 18.0934447,4.02145499e-14 19.639797,3.90798505e-14 C21.1861492,3.90798505e-14 22.1520098,2.38114912 22.1520098,2.38114912 C22.5707681,3.17089363 22.9102387,4.53293495 22.9102387,5.43595273 L22.9102387,11.1769419 L37.91586,18.8804688 C38.2354925,19.0445605 38.4927088,19.4679584 38.4985125,19.8303354 L38.511897,20.6660497 C38.5176222,21.0235215 38.3009185,21.5143743 38.0277003,21.7514439 L37.8344425,21.9191325 C37.5566568,22.1601653 37.0525661,22.3337296 36.6983226,22.3156512 L22.9102387,21.6119924 Z" id="path-5"></path>
    </defs>
    <g id="Page-1" stroke="none" stroke-width="1" fill="none" fill-rule="evenodd">
        <g id="1024" transform="translate(-482.000000, -50.000000)">
            <g id="Logo" transform="translate(482.000000, 50.000000)">
                <g id="Group-3" transform="translate(0.000000, 0.140845)">
                    <circle id="Oval" cx="30.375" cy="37.875" r="22.125"></circle>
                    <mask id="mask-3" fill="white">
                        <use xlink:href="#path-2"></use>
                    </mask>
                    <circle stroke="#42A5F5" stroke-width="3.75" cx="30" cy="30" r="28.125"></circle>
                    <g id="Group-2" mask="url(#mask-3)" stroke="#42A5F5" stroke-width="3.75">
                        <g transform="translate(2.250000, 4.500000)">
                            <path d="M0.463983051,18.375 L54.2860169,18.375" id="Line" stroke-linecap="square"></path>
                            <path d="M0.463983051,34.125 L54.2860169,34.125" id="Line" stroke-linecap="square"></path>
                            <path d="M27,0 C27,0 17.0377575,11.5775355 17.2534527,26.25 C17.4691478,40.9224645 27,51 27,51" id="Path-2" stroke-linecap="round" stroke-linejoin="round"></path>
                            <path d="M37.5,0 C37.5,0 27.5377575,11.5775355 27.7534527,26.25 C27.9691478,40.9224645 37.5,51 37.5,51" id="Path-2" stroke-linecap="round" stroke-linejoin="round" transform="translate(32.625000, 25.500000) scale(-1, 1) translate(-32.625000, -25.500000) "></path>
                        </g>
                    </g>
                </g>
                <g id="Group-7" filter="url(#filter-4)" transform="translate(3.460597, 2.077465)">
                    <g id="Plane-Icon" transform="translate(26.315723, 26.723178) rotate(-300.000000) translate(-26.315723, -26.723178) translate(6.815723, 8.723178)">
                        <mask id="mask-6" fill="white">
                            <use xlink:href="#path-5"></use>
                        </mask>
                        <use id="Combined-Shape" fill="#FFFFFF" xlink:href="#path-5"></use>
                        <rect id="Rectangle-7" fill="#EBECF2" mask="url(#mask-6)" x="15.0590488" y="9.94003106" width="1.30853165" height="12.408354"></rect>
                        <path d="M38.4985125,19.8303354 C38.4927088,19.4679584 38.2354925,19.0445605 37.91586,18.8804688 L22.4122696,10.9212965 L22.4122696,21.5865791 L36.6983226,22.3156512 C37.0525661,22.3337296 37.5566568,22.1601653 37.8344425,21.9191325 L38.0277003,21.7514439 C38.3009185,21.5143743 38.5176222,21.0235215 38.511897,20.6660497 L38.4985125,19.8303354 Z" id="Rectangle-5" fill="#DEE1E3" mask="url(#mask-6)"></path>
                        <path d="M21.4922483,33.0184188 C21.906686,32.1032082 22.1494098,31.2236038 22.1494098,31.2236038 C22.3783794,30.5738254 22.5642062,29.6075209 22.650179,28.7605204 L26.5525578,31.8496604 C26.8336232,32.072153 26.9093171,32.5028485 26.722649,32.8124563 L26.6331231,32.9609438 C26.4427287,33.2767319 26.0023897,33.4908726 25.6412756,33.4530446 L21.4922483,33.0184188 Z" id="Combined-Shape" fill="#DEE1E3" opacity="0.400000006" mask="url(#mask-6)"></path>
                        <path d="M26.4262072,21.7914258 L22.6795094,21.6002174 L22.6795094,11.058491 L24.4710197,11.9782095 L26.4262072,21.7914258 Z" id="Combined-Shape" fill="#C5C6CC" mask="url(#mask-6)"></path>
                        <path d="M22.9102387,0.678587402 L22.9102387,35.0782353 C22.9102387,35.0782353 21.0948675,35.0451501 19.6288346,35.0451501 C19.6110866,35.0451501 19.5934297,35.0446343 19.5758644,35.0436152 C20.3362665,33.9220629 21.6017071,31.510395 21.6017071,28.4629184 L21.6017071,4.64777754 C21.6017071,2.00165078 20.3985676,0.658898194 19.9152792,0.0229088779 C21.267477,0.251043216 22.9102387,0.678587402 22.9102387,0.678587402 Z" id="Combined-Shape" fill="#DEE1E3" mask="url(#mask-6)"></path>
                    </g>
                </g>
            </g>
        </g>
    </g>
</svg>

<svg width="60" height="60" viewBox="10 10 62 58" xmlns="http://www.w3.org/2000/svg" xmlns:xlink="http://www.w3.org/1999/xlink"><defs><circle id="a" cx="30" cy="30" r="30"/><filter x="-35.6%" y="-27.4%" width="171.2%" height="169.8%" filterUnits="objectBoundingBox" id="c"><feOffset dy="4" in="SourceAlpha" result="shadowOffsetOuter1"/><feGaussianBlur stdDeviation="5.5" in="shadowOffsetOuter1" result="shadowBlurOuter1"/><feColorMatrix values="0 0 0 0 0 0 0 0 0 0 0 0 0 0 0 0 0 0 0.35 0" in="shadowBlurOuter1" result="shadowMatrixOuter1"/><feMerge><feMergeNode in="shadowMatrixOuter1"/><feMergeNode in="SourceGraphic"/></feMerge></filter><path d="M22.91 21.612v6.45c0 .255-.02.55-.055.861l3.698 2.927a.759.759 0 0 1 .17.962l-.09.149c-.19.316-.63.53-.992.492l-4.038-.423c-.486.972-1.19 2.015-1.974 2.015-.783 0-1.482-1.041-1.964-2.012l-4.006.42c-.36.038-.801-.176-.992-.492l-.09-.149a.759.759 0 0 1 .17-.962l3.679-2.912a7.716 7.716 0 0 1-.058-.876v-6.445l-13.694.699c-.354.018-.858-.156-1.136-.397l-.193-.168c-.273-.237-.49-.727-.484-1.085l.013-.836c.006-.362.263-.785.583-.95l14.91-7.654v-5.79c0-.897.321-2.271.766-3.066 0 0 .96-2.37 2.507-2.37 1.546 0 2.512 2.381 2.512 2.381.419.79.758 2.152.758 3.055v5.74l15.006 7.704c.32.165.577.588.583.95l.013.836c.006.358-.211.848-.484 1.085l-.194.168c-.277.241-.781.415-1.136.397l-13.788-.704z" id="d"/></defs><g fill="none" fill-rule="evenodd"><g transform="translate(11 9.14)"><mask id="b" fill="#fff"><use xlink:href="#a"/></mask><circle stroke="#42A5F5" stroke-width="3.75" stroke-linejoin="square" fill="#2196F3" cx="30" cy="30" r="28.125"/><g mask="url(#b)" stroke="#42A5F5" stroke-width="3.75"><path d="M2.714 22.875h53.822M2.714 38.625h53.822" stroke-linecap="square"/><path d="M29.25 4.5s-9.962 11.578-9.747 26.25C19.72 45.422 29.25 55.5 29.25 55.5M30 4.5s9.962 11.578 9.747 26.25C39.53 45.422 30 55.5 30 55.5" stroke-linecap="round" stroke-linejoin="round"/></g></g><g transform="rotate(60 12.99 46.326)" filter="url(#c)"><mask id="e" fill="#fff"><use xlink:href="#d"/></mask><use fill="#FFF" xlink:href="#d"/><path fill="#EBECF2" mask="url(#e)" d="M15.059 9.94h1.309v12.408h-1.309z"/><path d="M38.499 19.83c-.006-.362-.264-.785-.583-.95l-15.504-7.959v10.666l14.286.729c.355.018.859-.156 1.136-.397l.194-.168c.273-.237.49-.727.484-1.085l-.013-.836z" fill="#DEE1E3" mask="url(#e)"/><path d="M21.492 33.018c.415-.915.657-1.794.657-1.794.23-.65.415-1.616.501-2.463l3.903 3.089a.759.759 0 0 1 .17.962l-.09.149c-.19.316-.63.53-.992.492l-4.149-.435z" fill="#DEE1E3" opacity=".4" mask="url(#e)"/><path d="M26.426 21.791l-3.746-.19V11.057l1.791.92 1.955 9.813z" fill="#C5C6CC" mask="url(#e)"/><path d="M22.91.679v34.4s-1.815-.034-3.281-.034l-.053-.001c.76-1.122 2.026-3.534 2.026-6.581V4.648c0-2.646-1.203-3.99-1.687-4.625 1.352.228 2.995.656 2.995.656z" fill="#DEE1E3" mask="url(#e)"/></g></g></svg>
